!!!!SEGMENT: pl-sa--221-a-vi-25--002_hasse-johann-adolf--virgo-gaude.krn
!!!cenid: 17xx:384
!!!COM: Hasse, Johann Adolf
!!!COM-rismid: pe51928
!!!CDT: 1699/03/25-1783/12/16
!!!CNT: German
!!!OTL: Virgo gaude
!!!PDT:
!!!AGN: Sacred
!!!SMS-siglum: PL-SA
!!!SMS-shelfmark: 221/A VI 25
!!!SMS-shelfwork: 002 W
!!!NIFC-rismid: 1001041290
!!!URL-scan: http://bc.bdsandomierz.pl/dlibra/publication/1577/edition/1545/content
!!!ONB-nifc:
**kern	**kern	**dynam	**kern	**dynam	**kern	**text
*part4	*part3	*part3	*part2	*part2	*part1	*part1
*	*group1	*	*group1	*	*	*
*staff4	*staff3	*	*staff2	*	*staff1	*staff1
*I"Organo	*I"Violino Secundo	*	*I"Violino Primo	*	*I"Canto	*
*I'Org	*I'Vno II	*	*I'Vno I	*	*I'C	*
*clefF4	*clefG2	*	*clefG2	*	*clefC1	*
*k[f#c#g#]	*k[f#c#g#]	*	*k[f#c#g#]	*	*k[f#c#g#]	*
*A:	*A:	*	*A:	*	*A:	*
*M2/4	*M2/4	*	*M2/4	*	*M2/4	*
=1	=1	=1	=1	=1	=1	=1
!	!LO:TX:a:B:t=2.	!	!LO:TX:a:t=aria.	!	!LO:TX:a:t=P:problem:krzyżyk cis oktawę wyżej	!
!	!LO:TX:b:B:t=Virgo Gaudo.	!	!	!	!	!
!	!	!	!	!	!LO:N:vis=00	!
(8AA'/L	4e/|	.	4a/|	.	0r	.
8AA'/	.	.	.	.	.	.
8AA'/	4g#/|	.	4b/|	.	.	.
8AA'/J)	.	.	.	.	.	.
=2	=2	=2	=2	=2	=2	=2
(8AA'/L	(16a/LL	.	(16cc#\LL	.	.	.
.	16b/JJ)	.	16dd\JJ)	.	.	.
8AA'/	4cc#\	.	4ee\	.	.	.
8AA'/	.	.	.	.	.	.
8AA'/J)	8e/	.	8e/	.	.	.
=3	=3	=3	=3	=3	=3	=3
(8AA'/L	4e/	.	4a/|	.	.	.
8AA'/	.	.	.	.	.	.
8AA'/	4g#/	.	4b/|	.	.	.
8AA'/J)	.	.	.	.	.	.
=4	=4	=4	=4	=4	=4	=4
4AA/	8a/	.	8cc#\	.	.	.
.	16e/LL	.	16e/LL	.	.	.
.	16c#/JJ	.	16c#/JJ	.	.	.
4r	8A/	.	8A/L	.	.	.
.	16e/LL	.	16e/L	.	.	.
.	16c#/JJ	.	16c#/JJ	.	.	.
=5	=5	=5	=5	=5	=5	=5
!	!	!	!	!	!LO:N:vis=00	!
(8AA'/L	4A/	.	4A/	.	0r	.
8AA'/	.	.	.	.	.	.
8AA'/	4g#/	.	4bT\	.	.	.
8AA'/J)	.	.	.	.	.	.
=6	=6	=6	=6	=6	=6	=6
(8AA'/L	(16a\LL	.	(16cc#\LL	.	.	.
.	16b\JJ)	.	16dd\JJ)	.	.	.
8AA'/	4cc#\	.	4ee\	.	.	.
8AA'/	.	.	.	.	.	.
8AA'/J)	8e/	.	8e/	.	.	.
=7	=7	=7	=7	=7	=7	=7
(8AA'/L	4e/	.	4a/	.	.	.
8AA'/	.	.	.	.	.	.
8AA'/	4g#/	.	4bT/	.	.	.
8AA'/J)	.	.	.	.	.	.
=8	=8	=8	=8	=8	=8	=8
4AA/	8a/	.	8cc#\	.	.	.
.	16e/LL	.	16e/LL	.	.	.
.	16c#/JJ	.	16c#/JJ	.	.	.
4r	8A/	.	8A/L	.	.	.
.	16e/LL	.	16e/L	.	.	.
.	16c#/JJ	.	16c#/JJ	.	.	.
=9	=9	=9	=9	=9	=9	=9
!	!LO:TX:a:t=P:problem:mixed beam	!	!	!	!LO:N:vis=00	!
8r	8A/L|	.	8A/	.	0r	.
8AA/L	(>8ff#\	.	(8aa\L	.	.	.
8AA/	8ee\	.	8gg#\	.	.	.
8AA/J	8dd\J)	.	8ff#\J)	.	.	.
=10	=10	=10	=10	=10	=10	=10
4AA/	8cc#\	.	8ee\	.	.	.
.	16e/LL	.	16e/LL	.	.	.
.	16c#/JJ	.	16c#/JJ	.	.	.
4r	8A/	.	8A/	.	.	.
.	16e/LL	.	16e/LL	.	.	.
!	!	!	!LO:SIC:s=c#:v	!	!	!
.	16c#/JJ	.	16d/JJ	.	.	.
=11	=11	=11	=11	=11	=11	=11
8r	8A/	.	8A/	.	.	.
8AA/L	(8dd\L	.	(8ff#\L	.	.	.
8AA/	8cc#\	.	8ee\	.	.	.
8AA/J	8b\J)	.	8dd\J)	.	.	.
!LO:LB:g=original	!	!	!LO:LB:g=original	!	!	!
=12	=12	=12	=12	=12	=12	=12
4AA/	8a/	.	8cc#\	.	.	.
.	16e/LL	.	16e/LL	.	.	.
.	16c#/JJ	.	16c#/JJ	.	.	.
4r	8A/	.	8A/	.	.	.
.	16e/LL	.	16e/LL	.	.	.
.	16c#/JJ	.	16c#/JJ	.	.	.
=13	=13	=13	=13	=13	=13	=13
!	!	!	!	!	!LO:N:vis=00	!
8r	8A/|	.	8A/	.	0r	.
!	!LO:LB:g=original	!	!	!	!	!
8AA/L	8ff#\L	.	(8aa\L	.	.	.
8AA/	8ee\	.	8gg#\	.	.	.
8AA/J	8dd\J	.	8ff#\J)	.	.	.
=14	=14	=14	=14	=14	=14	=14
4AA/	8cc#\	.	8ee\	.	.	.
.	16e/LL	.	16e/LL	.	.	.
.	16c#/JJ	.	16c#/JJ	.	.	.
4r	8A/	.	8A/	.	.	.
.	16e/LL	.	16a/LL|	.	.	.
.	16c#/JJ	.	16f#/JJ	.	.	.
=15	=15	=15	=15	=15	=15	=15
8D/|	8d/	.	8d/	.	.	.
8r	16b/LL	.	16b\LL	.	.	.
.	16g#/JJ	.	16g#\JJ	.	.	.
8E\	8e/	.	8e/	.	.	.
8r	16ee\LL	.	16ee\LL	.	.	.
.	16cc#\JJ	.	16cc#\JJ	.	.	.
=16	=16	=16	=16	=16	=16	=16
!	!	!	!LO:TX:a:t=P:problem:mixed beam	!	!	!
8A\|	8a/	.	8a/L	.	.	.
8r	16aa\LL	.	16aa\L	.	.	.
.	16ff#\JJ	.	16ff#\JJ	.	.	.
8B\	8dd\	.	8dd\	.	.	.
8r	16b\LL	.	16b\LL	.	.	.
.	16g#\JJ	.	16g#\JJ	.	.	.
=17	=17	=17	=17	=17	=17	=17
!	!LO:TX:a:t=P:problem:mixed beam	!	!LO:TX:a:t=P:problem:mixed beam	!	!LO:N:vis=00	!
8G#\L	16e/LL	.	16e/LL	.	0r	.
.	16dd\	.	16dd\	.	.	.
8A\	16cc#\	.	16cc#\	.	.	.
.	16b\JJ	.	16b\JJ	.	.	.
!	!LO:TX:a:t=P:problem:zamazana belka	!	!	!	!	!
8D\	8f#/L	.	8f#/L	.	.	.
8E\J	8g#/J	.	8g#/J	.	.	.
=18	=18	=18	=18	=18	=18	=18
8A\	8a/	.	8a/	.	.	.
8r	16aa\LL	.	16aa\LL	.	.	.
.	16ff#\JJ	.	16ff#\JJ	.	.	.
8B\	8dd\	.	8dd\	.	.	.
8r	16b\LL	.	16b\LL	.	.	.
.	16g#\JJ	.	16g#\JJ	.	.	.
=19	=19	=19	=19	=19	=19	=19
!	!LO:TX:a:t=P:problem:mixed beam	!	!LO:TX:a:t=P:problem:mixed beam	!	!	!
8G#\L	16e/LL	.	16e/LL	.	.	.
.	16dd\	.	16dd\	.	.	.
8A\	16cc#\	.	16cc#\	.	.	.
.	16b\JJ	.	16b\JJ	.	.	.
8D\	8f#/L	.	8f#/L	.	.	.
8E\J	8g#/J	.	8g#/J	.	.	.
!	!	!	!LO:LB:g=original	!	!	!
=20	=20	=20	=20	=20	=20	=20
!	!LO:TX:a:t=P:problem:mixed beam	!	!	!	!	!
4AA/	8cc#\L	.	8a/L	.	.	.
.	8A/J	.	8A/J	.	.	.
4r	4r	.	4r	.	.	.
!	!LO:TX:a:t=P:problem:podwójna kreska taktowa	!	!	!	!	!
=21	=21	=21	=21	=21	=21	=21
!	!	!	!	!LO:DY:b:t=piano.	!	!
(8AA'/L	4a\	p	4a/	p	4a\|	Vir-
8AA'/	.	.	.	.	.	.
8AA'/	4b\	.	4bT/	.	4b\|	-go
8AA'/J)	.	.	.	.	.	.
=22	=22	=22	=22	=22	=22	=22
(8AA'/L	16cc#\LL	.	16cc#\LL	.	(16cc#\LL	gau-
.	16dd\JJ	.	16dd\JJ	.	16dd\JJ)	.
8AA'/	4ee\	.	4ee\	.	4ee\	-de
8AA'/	.	.	.	.	.	.
8AA'/J)	8e/	.	8e/	.	8e/	.
=23	=23	=23	=23	=23	=23	=23
(8AA'/L	4a/	.	4a/	.	4a\|	quod
8AA'/	.	.	.	.	.	.
8AA'/	4b/	.	4b/	.	4b\|	de
8AA'/J)	.	.	.	.	.	.
=24	=24	=24	=24	=24	=24	=24
4AA/	8cc#\	.	8cc#\	.	16cc#\LL	frau-
.	.	.	.	.	16b\JJ	.
.	(16e/LL	.	16e/LL	.	8a\	-de
.	16c#/JJ)	.	16c#/JJ	.	.	.
4r	8A/	.	8A/	.	4r	.
.	16e/LL	.	16e/LL	.	.	.
.	16c#/JJ	.	16c#/JJ	.	.	.
!LO:LB:g=original	!LO:LB:g=original	!	!	!	!	!
=25	=25	=25	=25	=25	=25	=25
8AA/L	4A/	.	4A/	.	4a\|	Vir-
8AA/	.	.	.	.	.	.
8AA/	4f#/	.	4b\	.	4b\|	-go
8AA/J	.	.	.	.	.	.
=26	=26	=26	=26	=26	=26	=26
8AA/L	(16a\LL	.	(16cc#\LL	.	(16cc#\LL	gau-
.	16b\JJ)	.	16dd\JJ)	.	16dd\JJ)	.
8AA/	4cc#\	.	4ee\	.	4ee\	-de
8AA/	.	.	.	.	.	.
8AA/J	8e/	.	8e/	.	8e/	.
=27	=27	=27	=27	=27	=27	=27
8AA/L	4e/	.	4a/	.	4a\|	Vir-
8AA/	.	.	.	.	.	.
8AA/	4g#/	.	4b/	.	4b\|	-go
8AA/J	.	.	.	.	.	.
=28	=28	=28	=28	=28	=28	=28
4AA/	8a/	.	8cc#\	.	16cc#\LL	gau-
.	.	.	.	.	16b\JJ	.
.	16e/LL	.	16e/LL	.	8a\	-de
.	16c#/JJ	.	16c#/JJ	.	.	.
4r	8A/	.	8A/	.	4r	.
.	16e/LL	.	16e/LL	.	.	.
.	16c#/JJ	.	16c#/JJ	.	.	.
=29	=29	=29	=29	=29	=29	=29
!	!	!	!LO:TX:a:t=P:problem:mixed beam	!	!	!
8r	8c#/|	.	8A/L	.	8r	.
8AA/L	(8ff#\L	.	(>8aa\	.	8ff#\L	Vir-
8AA/	8ee\	.	8gg#\	.	8ee\J	.
8AA/J	8dd\J)	.	8ff#\J)	.	8dd\	-go
=30	=30	=30	=30	=30	=30	=30
4AA/	8cc#\	.	8ee\	.	16cc#\LL	gau-
.	.	.	.	.	16dd\JJ	.
.	16e/LL	.	16e/LL	.	8ee\	-de
.	16c#/JJ	.	16c#/JJ	.	.	.
4r	8A/	.	8A/	.	4r	.
.	16e/LL	.	16e/LL	.	.	.
.	16c#/JJ	.	16c#/JJ	.	.	.
!	!	!	!LO:LB:g=original	!	!LO:LB:g=original	!
=31	=31	=31	=31	=31	=31	=31
!	!	!	!LO:TX:a:t=P:problem:mixed beam	!	!	!
8r	8A/|	.	8A/L	.	8r	.
8AA/L	(8dd\L	.	(>8ff#\	.	8dd\L	quod
8AA/	8cc#\	.	8ee\	.	8cc#\J	.
8AA/J	8b\J)	.	8dd\J)	.	8b\	de
=32	=32	=32	=32	=32	=32	=32
4AA/	8a/	.	8cc#\	.	16cc#\LL	frau-
.	.	.	.	.	16b\JJ	.
.	16e/LL	.	16e/LL	.	8a\	-de
.	16c#/JJ	.	16c#/JJ	.	.	.
4r	8A/	.	8A/	.	4r	.
.	16e/LL	.	16e/LL	.	.	.
.	16c#/JJ	.	16c#/JJ	.	.	.
=33	=33	=33	=33	=33	=33	=33
8A\L	8A/	.	8A/	.	(8cc#\	Vir-
8A\	4cc#\	p	4cc#\	.	4cc#\)	-go
8A\	.	.	.	.	.	.
!	!	!	!.	!LO:DY:b:t=piano.	!	!
8A\J	8ee\	.	8ee\	p	8ee\	.
=34	=34	=34	=34	=34	=34	=34
8G#\L	8b\	.	8b/	.	(8b\	gau-
8G#\	4b\	.	4b/	.	4b\)	-de
8G#\	.	.	.	.	.	.
8G#\J	8ee\	.	8ee\	.	8ee\	.
=35	=35	=35	=35	=35	=35	=35
8F#\L	8a/	.	8a/	.	(8a\	quod
8F#\	4a/	.	4a/	.	4a\)	de
8F#\	.	.	.	.	.	.
8F#\J	8cc#\	.	8ee\	.	8ee\	.
=36	=36	=36	=36	=36	=36	=36
8E\L	8g#/L	.	8g#/L	.	16g#/LL	frau-
.	.	.	.	.	16f#/J	.
8E\	8g#/	.	8b/	.	8e/J	.
8E\	8g#/	.	8b/	.	4b\	.
8E\J	8g#/J	.	8b/J	.	.	.
!	!LO:LB:g=original	!	!	!	!	!
=37	=37	=37	=37	=37	=37	=37
.	.	.	.	.	8qqcc#/	.
8D#X/L	8f#/L	.	8b/L	.	8b\L	.
8D#/	8f#/	.	8b/	.	16a\L	.
.	.	.	.	.	16g#\JJ	.
.	.	.	.	.	8qqb/	.
8D#/	8a/	.	8b/	.	8a\L	.
8D#/J	8a/J	.	8b/J	.	16g#\L	.
.	.	.	.	.	16f#\JJ	.
!LO:LB:g=original	!	!	!	!	!	!
=38	=38	=38	=38	=38	=38	=38
.	.	.	.	.	8qqa/	.
8E\L	8g#/L	.	8b/L	.	8g#/L	.
8E\	8g#/	.	8b/	.	16f#/L	.
.	.	.	.	.	16e/JJ	.
8E\	8g#/	.	8b/	.	[4b\	.
8E\J	8g#/J	.	8b/J	.	.	.
=39	=39	=39	=39	=39	=39	=39
8D#X\L	8f#/L	.	8b/L	.	8b\L]	.
8D#\	8f#/	.	8b/	.	16a\L	.
.	.	.	.	.	16g#\JJ	.
.	.	.	.	.	8qqb/	.
8D#\	8a/	.	8b/	.	8a\L	.
8D#\J	8a/J	.	8b/J	.	16g#\L	.
.	.	.	.	.	16f#\JJ	.
!	!	!	!	!	!LO:LB:g=original	!
=40	=40	=40	=40	=40	=40	=40
.	.	.	.	.	8qqa/	.
8E\L	8g#/L	.	8b/L	.	8g#/L	.
8E\	8g#/	.	8b/	.	16f#/L	.
.	.	.	.	.	16e/JJ	.
8E\	8g#/	.	8b/	.	[4ee\	.
8E\J	8g#/J	.	8b/J	.	.	.
=41	=41	=41	=41	=41	=41	=41
8G#\L	8e/L	.	8b/L	.	8ee\L]	.
8G#\	8e/	.	8b/	.	16dd\L	.
.	.	.	.	.	16cc#\JJ	.
.	.	.	.	.	8qqee/	.
8G#\	8e/	.	8b/	.	8dd\L	.
8G#\J	8e/J	.	8b/J	.	16cc#\L	.
.	.	.	.	.	16b\JJ	.
=42	=42	=42	=42	=42	=42	=42
!	!LO:TX:a:t=P:problem:mixed beam	!	!	!	!	!
8A\L	8e/L	.	8cc#\L	.	8cc#\L	.
8A\	8cc#\	.	8ee\	.	16b\L	.
.	.	.	.	.	16a\JJ	.
8A\	8cc#\	.	8ee\	.	4ee\	.
8A\J	8cc#\J	.	8ee\J	.	.	.
!	!	!	!LO:LB:g=original	!	!	!
=43	=43	=43	=43	=43	=43	=43
8G#\L	8b\L	.	8ee\L	.	8ee\L	.
8G#\	8b\	.	8ee\	.	16dd\L	.
.	.	.	.	.	16cc#\JJ	.
.	.	.	.	.	8qqee/	.
8G#\	8b\	.	8ee\	.	8dd\L	.
8G#\J	8b\J	.	8ee\J	.	16cc#\L	.
.	.	.	.	.	16b\JJ	.
=44	=44	=44	=44	=44	=44	=44
8A\L	8cc#\L	.	8ee\L	.	8cc#\L	.
8A\	8cc#\	.	8ee\	.	16b\L	.
.	.	.	.	.	16a\JJ	.
8A\	8cc#\	.	8ee\	.	4ee\	.
8A\J	8cc#\J	.	8ee\J	.	.	.
=45	=45	=45	=45	=45	=45	=45
8A#X\L	8cc#\L	.	8ee\L	.	8ee\L	.
8A#\	8cc#\	.	8ee\	.	16dd#X\L	.
.	.	.	.	.	16cc#\JJ	.
8A#\	8cc#\	.	8ee\	.	16ff#\LL	.
.	.	.	.	.	16ee\	.
8A#\J	8cc#\J	.	8ee\J	.	16dd#X\	.
.	.	.	.	.	16cc#\JJ	.
=46	=46	=46	=46	=46	=46	=46
8B\L	8dd#X\L	.	8dd#X\L	.	16dd#X\LL	.
.	.	.	.	.	16cc#\J	.
8B\	8b\J	.	8b\J	.	8dd#\J	.
8G#\	8bb\	.	8bb\	.	16r	.
.	.	.	.	.	16ff#\LL	.
8G#\J	8r	.	8r	.	16ee\	.
.	.	.	.	.	16dd#\JJ	.
=47	=47	=47	=47	=47	=47	=47
8A\L	8cc#\L	.	8cc#\L	.	16cc#\LL	.
.	.	.	.	.	16b\J	.
8A\	8a\J	.	8a\J	.	8cc#\J	.
8F#\	8aa\	.	8aa\	.	16r	.
.	.	.	.	.	16ee\LL	.
8F#\J	8r	.	8r	.	16dd#X\	.
.	.	.	.	.	16cc#\JJ	.
!	!	!	!	!	!LO:LB:g=original	!
=48	=48	=48	=48	=48	=48	=48
8G#\L	8b\L	.	8b/L	.	16b\LL	.
.	.	.	.	.	16a\J	.
8G#\	8g#\J	.	8g#/J	.	8b\J	.
8E\	8gg#\	.	8gg#\	.	16r	.
.	.	.	.	.	16cc#\LL	.
8E\J	8r	.	8r	.	16b\	.
.	.	.	.	.	16a\JJ	.
=49	=49	=49	=49	=49	=49	=49
8F#\L	8a/L	.	8a/L	.	16a\LL	.
.	.	.	.	.	16g#\J	.
8F#\	8f#/J	.	8f#/J	.	8a\J	.
8D#X\	8ff#\	.	8ff#\	.	16r	.
.	.	.	.	.	16b\LL	.
8D#\J	8r	.	8r	.	16a\	.
.	.	.	.	.	16g#\JJ	.
!LO:LB:g=original	!	!	!	!	!	!
=50	=50	=50	=50	=50	=50	=50
8E\L	8e/L	.	8g#/L	.	16g#\LL	.
.	.	.	.	.	16b\	.
8E\	8g#/	.	8b/	.	16b\	.
.	.	.	.	.	16b\JJ	.
8E\	8g#/	.	8b/	.	16g#\LL	.
.	.	.	.	.	16b\	.
8E\J	8g#/J	.	8b/J	.	16b\	.
.	.	.	.	.	16b\JJ	.
=51	=51	=51	=51	=51	=51	=51
4D#X/	8f#/	.	8b/	.	16ff#\LL	.
.	.	.	.	.	16ee\	.
.	8r	.	8r	.	16dd#X\	.
.	.	.	.	.	16cc#\JJ	.
4r	4r	.	4r	.	16b\LL	.
.	.	.	.	.	16a\	.
.	.	.	.	.	16g#\	.
.	.	.	.	.	16f#\JJ	.
!	!LO:LB:g=original	!	!	!	!	!
=52	=52	=52	=52	=52	=52	=52
8E\L	8e/L	.	8g#/L	.	16g#\LL	.
.	.	.	.	.	16b\	.
8E\	8g#/	.	8b/	.	16b\	.
.	.	.	.	.	16b\JJ	.
8E\	8g#/	.	8b/	.	16g#\LL	.
.	.	.	.	.	16b\	.
8E\J	8g#/J	.	8b/J	.	16b\	.
.	.	.	.	.	16b\JJ	.
=53	=53	=53	=53	=53	=53	=53
4D#X/	8f#/	.	8b/	.	16ff#\LL	.
.	.	.	.	.	16ee\	.
.	8r	.	8r	.	16dd#X\	.
.	.	.	.	.	16cc#\JJ	.
4r	4r	.	4r	.	16b\LL	.
.	.	.	.	.	16a\	.
.	.	.	.	.	16g#\	.
.	.	.	.	.	16f#\JJ	.
=54	=54	=54	=54	=54	=54	=54
8E\L	4g#/	.	4g#/	.	4g#\	.
8BB\	.	.	.	.	.	.
8F#\	(16a/LL	.	(16a\LL	.	(16a\LL	.
!	!	!LO:DY:b	!	!	!	!
.	16b/	p	16b\	.	16b\	.
8BB\J	16cc#/	.	16cc#\	.	16cc#\	.
!	!	!	!LO:TX:a:t=P:problem:# nad nutą	!	!	!
.	16dd#X/JJ)	.	16dd#X\JJ)	.	16dd#X\JJ)	.
!	!	!	!LO:LB:g=original	!	!	!
=55	=55	=55	=55	=55	=55	=55
8G#\L	4ee\	.	4ee\	.	4ee\	.
8BB\	.	.	.	.	.	.
8F#\	(16dd#X\LL	.	(16dd#X\LL	.	(16dd#X\LL	.
.	16cc#\	.	16cc#\	.	16cc#\	.
8BB\J	16b\)	.	16b\	.	16b\	.
.	16a\JJ	.	16a\JJ)	.	16a\JJ)	.
!	!	!	!	!	!LO:LB:g=original	!
=56	=56	=56	=56	=56	=56	=56
.	8qqa/	.	8qqa/	.	.	.
8E\L	4g#/	.	4g#/	.	4g#\	.
8BB\	.	.	.	.	.	.
8F#\	(16a/LL	.	(16a\LL	.	(16a\LL	.
.	16b/	.	16b\	.	16b\	.
8BB\J	16cc#/	.	16cc#\	.	16cc#\	.
.	16dd#X/JJ)	.	16dd#X\JJ)	.	16dd#X\JJ)	.
=57	=57	=57	=57	=57	=57	=57
8G#\L	4ee\	.	4ee\	.	4ee\	.
8BB\	.	.	.	.	.	.
8F#\	(16dd#X\LL	.	(16dd#X\LL	.	16dd#X\LL	.
.	16cc#\	.	16cc#\	.	16cc#\	.
8BB\J	16b\	.	16b\	.	16b\	.
.	16a\JJ)	.	16a\JJ)	.	16a\JJ	.
=58	=58	=58	=58	=58	=58	=58
.	8qqa/	.	8qqa/	.	8qqa/	.
8E\L	4g#/	.	4g#/	.	4g#\	.
8BB\	.	.	.	.	.	.
8F#\	(16a/LL	.	(16a\LL	.	16a\LL	.
.	16b/	.	16b\	.	16b\	.
8BB\J	16cc#/)	.	16cc#\	.	16cc#\	.
.	16dd#X/JJ	.	16dd#X\JJ)	.	16dd#X\JJ	.
=59	=59	=59	=59	=59	=59	=59
4G#\	16ee\LL	.	16ee\LL	.	16ee\LL	.
.	16gg#\	.	16gg#\	.	16gg#\	.
.	16ff#\	.	16ff#\	.	16ff#\	.
.	16ee\JJ	.	16ee\JJ	.	16ee\JJ	.
8r	16dd#X\LL	.	16dd#X\LL	.	16dd#X\LL	.
.	16cc#\	.	16cc#\	.	16cc#\	.
8A\	16b\	.	16b\	.	16b\	.
.	16a\JJ	.	16a\JJ	.	16a\JJ	.
=60	=60	=60	=60	=60	=60	=60
4B\	4g#/	.	4g#/	.	16g#/LL	.
.	.	.	.	.	16f#/J	.
.	.	.	.	.	8e/J	.
4BB/	4f#/	.	4f#/	.	4f#/	.
=61	=61	=61	=61	=61	=61	=61
8E\L	4b\	.	4ee\	.	4e/	-de
8E\	.	.	.	.	.	.
!	!	!	!	!LO:DY:b	!	!
8E\	4dd#Xt\	.	4ff#\	f	4r	.
8E\J	.	.	.	.	.	.
=62	=62	=62	=62	=62	=62	=62
!	!	!	!	!	!LO:N:vis=0	!
8E\L	16ee\LL	.	16gg#\LL	.	1r	.
.	16ff#\JJ	.	16aa\JJ	.	.	.
8E\	4gg#\	.	4bb\	.	.	.
8E\	.	.	.	.	.	.
8E\J	8b\	.	8b/	.	.	.
=63	=63	=63	=63	=63	=63	=63
8E\L	4b\	.	4ee\	.	.	.
8E\	.	.	.	.	.	.
8E\	4dd#X\	.	4ff#\	.	.	.
8E\J	.	.	.	.	.	.
=64	=64	=64	=64	=64	=64	=64
4E\	4ee\	.	16gg#\LL	.	2r	.
.	.	.	16ee\	.	.	.
.	.	.	16b\	.	.	.
.	.	.	16g#\JJ	.	.	.
4r	4r	.	4e/	.	.	.
!LO:LB:g=original	!LO:LB:g=original	!	!	!	!	!
=65	=65	=65	=65	=65	=65	=65
!	!	!	!	!LO:DY:b	!	!
8AA/L	4e/	.	4a/	p	4a\	Vir-
8AA/	.	.	.	.	.	.
8AA/	4g#/	.	4b/	.	4b\	-go
8AA/J	.	.	.	.	.	.
!	!	!	!LO:LB:g=original	!	!	!
=66	=66	=66	=66	=66	=66	=66
8AA/L	16a\LL	.	(16cc#\LL	.	16cc#\LL	gau-
.	16b\JJ	.	16dd\JJ)	.	16dd\JJ	.
8AA/	4cc#\	.	4ee\	.	4ee\	-de
8AA/	.	.	.	.	.	.
8AA/J	8e/	.	8e/	.	8e/	.
=67	=67	=67	=67	=67	=67	=67
8AA/L	4e/	.	4a/	.	4a\	quod
8AA/	.	.	.	.	.	.
8AA/	4g#/	.	4b/	.	4b\	de
8AA/J	.	.	.	.	.	.
!	!	!	!	!	!LO:LB:g=original	!
=68	=68	=68	=68	=68	=68	=68
4AA/	8a/	.	8cc#\	.	16cc#\LL	frau-
.	.	.	.	.	16b\JJ	.
.	16e/LL	.	16e/LL	.	8a\	-de
.	16c#/JJ	.	16c#/JJ	.	.	.
4r	8A/	.	8A/	.	4r	.
.	16e/LL	.	16e/LL	.	.	.
.	16c#/JJ	.	16c#/JJ	.	.	.
=69	=69	=69	=69	=69	=69	=69
8AA/L	4A/	.	4A/	.	4ee\	Vir-
8AA/	.	.	.	.	.	.
8C#/	4r	.	4r	.	4gn/	-go
8C#/J	.	.	.	.	.	.
=70	=70	=70	=70	=70	=70	=70
4D/	8r	.	8r	.	16f#/LL	gau-
.	.	.	.	.	16e/JJ	.
.	16f#/LL	.	16f#/LL	.	8d/	-de
.	16d/JJ	.	16d/JJ	.	.	.
!	!	!	!LO:SIC:s=8B:v	!	!	!
4r	8B/	.	8A/	.	4r	.
.	16f#/LL	.	16f#/LL	.	.	.
.	16d/JJ	.	16d/JJ	.	.	.
=71	=71	=71	=71	=71	=71	=71
8BB/L	4B/	.	8B/	.	8r	.
8BB/	.	.	8r	.	8ff#\	quod
8D#X/	4r	.	4r	.	8ff#\	de
8D#/J	.	.	.	.	8b\	frau-
=72	=72	=72	=72	=72	=72	=72
4E\	8r	.	8r	.	16g#/LL	-de
.	.	.	.	.	16f#/JJ	.
.	16b\LL	.	16b/LL	.	8e/	.
.	16g#\JJ	.	16g#/JJ	.	.	.
4r	8e/	.	8e/	.	4r	.
.	8r	.	8r	.	.	.
=73	=73	=73	=73	=73	=73	=73
!LO:TX:a:t=P:problem:mixed beam	!	!	!	!	!	!
8E\L	16b\LL	.	16dd\LL	.	4dd\	Vir-
.	16b\	.	16dd\	.	.	.
8EE/	16gg#\	.	16bb\	.	.	.
.	16gg#\JJ	.	16bb\JJ	.	.	.
8E\	16b\LL	.	16dd\LL	.	4b\	-go
.	16b\	.	16dd\	.	.	.
8EE/J	16gg#\	.	16bb\	.	.	.
.	16gg#\JJ	.	16bb\JJ	.	.	.
=74	=74	=74	=74	=74	=74	=74
!LO:TX:a:t=P:problem:mixed beam	!	!	!	!	!	!
8E\L	16a\LL	.	16cc#\LL	.	8cc#\L	gau-
.	16a\	.	16cc#\	.	.	.
8EE/	16ee\	.	16aa\	.	16b\L	.
.	16ee\JJ	.	16aa\JJ	.	16a\JJ	.
8E\	16a\LL	.	16cc#\LL	.	4ee\	-de
.	16a\	.	16cc#\	.	.	.
8EE/J	16ee\	.	16aa\	.	.	.
.	16ee\JJ	.	16aa\JJ	.	.	.
!	!	!	!LO:LB:g=original	!	!	!
=75	=75	=75	=75	=75	=75	=75
!LO:TX:a:t=P:problem:mixed beam	!	!	!	!	!	!
8E\L	16b\LL	.	16dd\LL	.	4dd\	quod
.	16b\	.	16dd\	.	.	.
8EE/	16gg#\	.	16bb\	.	.	.
.	16gg#\JJ	.	16bb\JJ	.	.	.
8E\	16b\LL	.	16dd\LL	.	4b\	de
.	16b\	.	16dd\	.	.	.
8EE/J	16gg#\	.	16bb\	.	.	.
.	16gg#\JJ	.	16bb\JJ	.	.	.
=76	=76	=76	=76	=76	=76	=76
!LO:TX:a:t=P:problem:mixed beam	!	!	!	!	!	!
8E\L	16a\LL	.	16cc#\LL	.	8cc#\L	frau-
.	16a\	.	16cc#\	.	.	.
8EE/	16ee\	.	16aa\	.	16b\L	.
.	16ee\JJ	.	16aa\JJ	.	16a\JJ	.
8E\	16a\LL	.	16cc#\LL	.	4ee\	-de.
.	16a\	.	16cc#\	.	.	.
8EE/J	16ee\	.	16aa\	.	.	.
.	16ee\JJ	.	16aa\JJ	.	.	.
!	!LO:LB:g=original	!	!	!	!	!
=77	=77	=77	=77	=77	=77	=77
!LO:TX:a:t=P:problem:mixed beam	!	!	!	!	!	!
8E\L	16b\LL	.	16dd\LL	.	4r	.
.	16b\	.	16dd\	.	.	.
8EE/	16gg#\	.	16bb\	.	.	.
.	16gg#\JJ	.	16bb\JJ	.	.	.
8E\	16b\LL	.	16dd\LL	.	8dd\	Dae-
.	16b\	.	16dd\	.	.	.
8EE/J	16gg#\	.	16bb\	.	8b\	-mo-
.	16gg#\JJ	.	16bb\JJ	.	.	.
!LO:LB:g=original	!	!	!	!	!LO:LB:g=original	!
=78	=78	=78	=78	=78	=78	=78
8AA/L	8aa\L	.	8cc#\L	.	16cc#\LL	-num
.	.	.	.	.	16dd\JJ	.
8AA/	8cc#\	.	8ee\	.	4ee\	.
8AA/	8cc#\	.	8ee\	.	.	.
8AA/J	8cc#\J	.	8ee\J	.	8cc#\	nos
=79	=79	=79	=79	=79	=79	=79
8C#/L	8a/L	.	8ee\L	.	4a\	li-
8C#/	8a/	.	8ee\	.	.	.
8C#/	8gn/	.	8ee\	.	4gn/	-be-
8C#/J	8g/J	.	8ee\J	.	.	.
=80	=80	=80	=80	=80	=80	=80
!	!	!	!	!	!LO:SIC:s=8qqgn:v	!
.	.	.	.	.	8qqg#/	.
8D/L	8f#/L	.	8a\L	.	4f#/	-ras
8D/	8a/	.	8ff#\	.	.	.
8D/	8a/	.	8ff#\	.	8r	.
8D/J	8a/J	.	8ff#\J	.	16g#X\	Vir-
.	.	.	.	.	16a\	-go
=81	=81	=81	=81	=81	=81	=81
8D/L	8b/L	.	8ff#\L	.	16b\LL	gau-
.	.	.	.	.	16cc#\	.
8D/	8b/	.	8ff#\	.	16dd\	.
.	.	.	.	.	16cc#\JJ	.
8D/	8b/	.	8ff#\	.	8b\L	.
8D/J	8b/J	.	8ff#\J	.	8a\J	.
=82	=82	=82	=82	=82	=82	=82
.	.	.	.	.	8qqa/	.
8E\L	8g#/L	.	8b\L	.	8g#/L	.
8E\	8g#/	.	8b\	.	16f#/L	.
.	.	.	.	.	16e/JJ	.
8E\	8b/	.	8ee\	.	4ee\	.
8E\J	8b/J	.	8ee\J	.	.	.
=83	=83	=83	=83	=83	=83	=83
.	.	.	.	.	8qqee/	.
8E\L	8b/L	.	8dd\L	.	8dd\L	.
8E\	8b/	.	8dd\	.	16cc#\L	.
.	.	.	.	.	16b\JJ	.
.	.	.	.	.	8qqdd/	.
8E\	8a/	.	8cc#\	.	8cc#\L	.
8E\J	8a/J	.	8cc#\J	.	16b\L	.
.	.	.	.	.	16a\JJ	.
=84	=84	=84	=84	=84	=84	=84
.	.	.	.	.	8qqa/	.
8E\L	8g#/L	.	8b\L	.	8g#/L	.
8E\	8g#/	.	8b\	.	16f#/L	.
.	.	.	.	.	16e/JJ	.
8E\	8cc#/	.	8ee\	.	4ee\	.
8E\J	8cc#/J	.	8ee\J	.	.	.
=85	=85	=85	=85	=85	=85	=85
.	.	.	.	.	8qqee/	.
8E\L	8b/L	.	8dd\L	.	8dd\L	.
8E\	8b/	.	8dd\	.	16cc#\L	.
.	.	.	.	.	16b\JJ	.
.	.	.	.	.	8qqdd/	.
8E\	8a/	.	8cc#\	.	8cc#\L	.
8E\J	8a/J	.	8cc#\J	.	16b\L	.
.	.	.	.	.	16a\JJ	.
=86	=86	=86	=86	=86	=86	=86
8E\	8g#/	.	8b\	.	16g#/LL	.
.	.	.	.	.	16e/	.
8r	8r	.	8r	.	16f#/	.
.	.	.	.	.	16g#/JJ	.
4r	4r	.	4r	.	16a\LL	.
.	.	.	.	.	16b\	.
.	.	.	.	.	16cc#\	.
.	.	.	.	.	16dd#X\JJ	.
=87	=87	=87	=87	=87	=87	=87
8E\L	8g#/L	.	8ee\L	.	16ee\LL	.
.	.	.	.	.	16dd#X\	.
8F#\	8a/	.	8ee\	.	16ee\	.
.	.	.	.	.	16dd#\JJ	.
!	!	!	!	!	!LO:LB:g=original	!
8G#\	8b/	.	8ee\	.	16ee\LL	.
.	.	.	.	.	16dd#X\	.
8F#\J	8a/J	.	8ee\J	.	16ee\	.
.	.	.	.	.	16dd#\JJ	.
=88	=88	=88	=88	=88	=88	=88
!	!	!	!	!	!LO:TX:a:t=P:problem:mixed beam	!
4E\	8g#/	.	8ee\	.	16ee\LL	.
.	.	.	.	.	16e/	.
.	8r	.	8r	.	16f#/	.
.	.	.	.	.	16g#/JJ	.
4r	4r	.	4r	.	16a\LL	.
.	.	.	.	.	16b\	.
.	.	.	.	.	16cc#\	.
.	.	.	.	.	16dd#X\JJ	.
!	!	!	!LO:LB:g=original	!	!	!
=89	=89	=89	=89	=89	=89	=89
8E\L	8g#/L	.	8g#/L	.	16ee\LL	.
.	.	.	.	.	16dd#X\	.
8F#\	8a/	.	8a/	.	16ee\	.
.	.	.	.	.	16dd#\JJ	.
8G#\	8b/	.	8b/	.	16ee\LL	.
.	.	.	.	.	16dd#\	.
8F#\J	8a/J	.	8a/J	.	16ee\	.
.	.	.	.	.	16dd#\JJ	.
=90	=90	=90	=90	=90	=90	=90
4E\	8g#/	.	8g#/	.	16ee\LL	.
.	.	.	.	.	16dd#X\	.
.	8r	.	8r	.	16cc#\	.
.	.	.	.	.	16b\JJ	.
4r	4r	.	4r	.	16a/LL	.
.	.	.	.	.	16g#/	.
.	.	.	.	.	16f#/	.
.	.	.	.	.	16e/JJ	.
!LO:LB:g=original	!LO:LB:g=original	!	!	!	!	!
=91	=91	=91	=91	=91	=91	=91
8E\L	8b\L	.	8ddn\L	.	16ddn\LL	.
.	.	.	.	.	16cc#\	.
8E\	8b\	.	8dd\J	.	16dd\	.
.	.	.	.	.	16cc#\JJ	.
8E\	8b\	.	16dd\LL	.	8dd\	.
.	.	.	16cc#\	.	.	.
8E\J	8b\J	.	16dd\	.	8r	.
.	.	.	16cc#\JJ	.	.	.
=92	=92	=92	=92	=92	=92	=92
8E\L	8b\	.	8dd\	.	8r	.
8E\	8r	.	8r	.	16dd\LL	.
.	.	.	.	.	16ee\JJ	.
8E\	8dd\	.	8bb\	.	16ff#\LL	.
.	.	.	.	.	16dd\	.
8E\J	8r	.	8r	.	16cc#\	.
.	.	.	.	.	16b\JJ	.
=93	=93	=93	=93	=93	=93	=93
8E\L	8a\L	.	8cc#\L	.	16cc#\LL	.
.	.	.	.	.	16b\	.
8E\	8a\	.	8cc#\J	.	16cc#\	.
.	.	.	.	.	16b\JJ	.
8E\	8a\	.	16cc#\LL	.	8cc#\	.
.	.	.	16b\	.	.	.
8E\J	8a\J	.	16cc#\	.	8r	.
.	.	.	16b\JJ	.	.	.
=94	=94	=94	=94	=94	=94	=94
8E\L	8a\	.	8cc#\	.	8r	.
8E\	8r	.	8r	.	16cc#\LL	.
.	.	.	.	.	16dd\JJ	.
8E\	8cc#\	.	8aa\	.	16ee\LL	.
.	.	.	.	.	16cc#\	.
8E\J	8r	.	8r	.	16b\	.
.	.	.	.	.	16a\JJ	.
=95	=95	=95	=95	=95	=95	=95
8D#X/L	8a\L	.	8ccn\L	.	16ccn\LL	.
.	.	.	.	.	16b\	.
8D#/	8a\	.	8cc\J	.	16cc\	.
.	.	.	.	.	16b\JJ	.
8D#/	8a\	.	16cc\LL	.	8cc\	.
.	.	.	16b\	.	.	.
8D#/J	8a\J	.	16cc\	.	8r	.
.	.	.	16b\JJ	.	.	.
!	!	!	!	!	!LO:LB:g=original	!
=96	=96	=96	=96	=96	=96	=96
!LO:SIC:s=8D#:v	!	!	!	!	!	!
8D/L	8a/	.	8ccn\	.	8r	.
!LO:SIC:s=8D#:v	!	!	!	!	!	!
8D/	8r	.	8r	.	16ccn\LL	.
.	.	.	.	.	16dd\JJ	.
!LO:SIC:s=8D#:v	!	!	!	!	!	!
8D/	8ccn\	.	8aa\	.	16ee\LL	.
.	.	.	.	.	16cc\	.
!LO:SIC:s=8D#:v	!	!	!	!	!	!
8D/J	8r	.	8r	.	16b\	.
.	.	.	.	.	16a\JJ	.
=97	=97	=97	=97	=97	=97	=97
8E\L	8e/L	.	8g#/L	.	16g#\LL	.
.	.	.	.	.	16a\	.
8E\	8g#/	.	8b/	.	16b\	.
!	!	!	!	!	!LO:SIC:s=16ccn:v	!
.	.	.	.	.	16cc#\JJ	.
8E\	8g#/	.	8b/	.	8b\	.
8E\J	8g#/J	.	8b/J	.	8r	.
=98	=98	=98	=98	=98	=98	=98
8E\L	8e/L	.	8a\L	.	16a\LL	.
.	.	.	.	.	16b\	.
8E\	8a/	.	8cc#X\	.	16cc#X\	.
.	.	.	.	.	16dd\JJ	.
8E\	8a/	.	8cc#\	.	8cc#\	.
8E\J	8a/J	.	8cc#\J	.	8r	.
=99	=99	=99	=99	=99	=99	=99
8E\L	8e/L	.	8b\L	.	16b\LL	.
.	.	.	.	.	16cc#\	.
8E\	8b/	.	8dd\	.	16dd\	.
.	.	.	.	.	16ee\JJ	.
8E\	8b/	.	8dd\	.	8dd\	.
8E\J	8b/J	.	8dd\J	.	8r	.
=100	=100	=100	=100	=100	=100	=100
8E\L	8e/L	.	8cc#\L	.	16cc#\LL	.
.	.	.	.	.	16dd\	.
8E\	8cc#/	.	8ee\	.	16ee\	.
.	.	.	.	.	16dd\JJ	.
8E\	8cc#/	.	8ee\	.	16ee\LL	.
.	.	.	.	.	16cc#\	.
8E\J	8cc#/J	.	8ee\J	.	16b\	.
.	.	.	.	.	16a\JJ	.
=101	=101	=101	=101	=101	=101	=101
*	*	*	*^	*	*	*
8E\	8g#/	.	8ee/	8b\	.	16g#\LL	.
.	.	.	.	.	.	16e\	.
8r	8r	.	8r	8ryy	.	16ee\	.
.	.	.	.	.	.	16b\JJ	.
4r	4r	.	4r	4ryy	.	16g#\LL	.
.	.	.	.	.	.	16e\	.
.	.	.	.	.	.	16ee\	.
.	.	.	.	.	.	16b\JJ	.
*	*	*	*v	*v	*	*	*
=102	=102	=102	=102	=102	=102	=102
8E\	8g#/	.	8b/	.	16g#\LL	.
.	.	.	.	.	16e\	.
8r	8r	.	8r	.	16ee\	.
.	.	.	.	.	16b\JJ	.
8r	8r	.	8r	.	16g#\LL	.
.	.	.	.	.	16e\	.
8E\	8b\	.	8dd\	.	16ee\	.
.	.	.	.	.	16b\JJ	.
!LO:LB:g=original	!	!	!	!	!	!
=103	=103	=103	=103	=103	=103	=103
8A\L	8a\L	.	8cc#\L	.	16cc#\LL	.
.	.	.	.	.	16a\	.
8D\	8dd\	.	8ff#\	.	16ff#\	.
.	.	.	.	.	16dd\JJ	.
8D\	8cc#\	.	8ee\	.	16ee\LL	.
.	.	.	.	.	16cc#\	.
8D\J	8b\J	.	8dd\J	.	16dd\	.
.	.	.	.	.	16b\JJ	.
!	!LO:LB:g=original	!	!LO:LB:g=original	!	!	!
=104	=104	=104	=104	=104	=104	=104
8E\L	4a/	.	4cc#\|	.	4a\	.
8E\	.	.	.	.	.	.
8E\	4g#/	.	4b\|	.	4b\	.
8E\J	.	.	.	.	.	.
!	!	!	!	!	!LO:LB:g=original	!
=105	=105	=105	=105	=105	=105	=105
!	!	!	!LO:TX:a:t=P:problem:mixed beam	!	!	!
8A\	8a/	.	8a/L	.	4a\	-de
8r	16aa\LL	.	16aa\L	.	.	.
.	16ff#\JJ	.	16ff#\JJ	.	.	.
!	!LO:SIC:s=8dd:v	!	!	!	!	!
8B\	8cc#\	.	8dd\	.	8r	.
!	!	!	!LO:SIC:s=16b:v	!	!	!
8r	16b/LL	.	16a\LL	.	8a\	quod
.	16g#/JJ	.	16g#\JJ	.	.	.
=106	=106	=106	=106	=106	=106	=106
!	!	!	!LO:TX:a:t=P:problem:mixed beam	!	!	!
4G#\	8e/L	.	8e/L	.	8d/	de
.	8b/	.	8dd\	.	8dd\	.
4r	8a/	.	8cc#\	.	8cc#\	frau-
.	8g#/J	.	8b\J	.	8b\	-de
=107	=107	=107	=107	=107	=107	=107
8A\	8a/	.	8cc#\|	.	16cc#\	Dae-
.	.	.	.	.	16b\	-mo-
8r	16aa\LL	.	16aa\LL	.	8a\	-num
.	16ff#\JJ	.	16ff#\JJ	.	.	.
8B\	8dd\	.	8dd\	.	8r	.
8r	16b\LL	.	16b\LL	.	8b\	gau-
.	16g#\JJ	.	16g#\JJ	.	.	.
=108	=108	=108	=108	=108	=108	=108
!	!	!	!LO:TX:a:t=P:problem:mixed beam	!LO:DY:b:t=piano	!	!
8G#\L	8e/L	.	8e/L	p	8e/	-de
8G#\	8b/	.	8dd\	.	8dd\	Vir-
8G#\	8b/	.	8dd\	.	4dd\	-go
8G#\J	8b/J	.	8dd\J	.	.	.
=109	=109	=109	=109	=109	=109	=109
8G#\L	8b/L	.	8dd\L	.	8dd\L	gau-
8G#\	8b/	.	8dd\	.	16cc#\L	.
.	.	.	.	.	16b\JJ	.
.	.	.	.	.	8qqdd/	.
8A\	8a/	.	8cc#\	.	8cc#\	.
8A\J	8a/J	.	8cc#\J	.	16b\LL	.
.	.	.	.	.	16a\JJ	.
=110	=110	=110	=110	=110	=110	=110
4E\	4g#/	.	8b\	.	4ee\	-de
.	.	.	8r	.	.	.
4r	4r	.	4r	.	4e/	.
=111	=111	=111	=111	=111	=111	=111
!LO:TX:a:t=1.	!LO:TX:a:t=P:problem:coś dziwnego w tym takcie	!	!	!	!	!
2r	2r	.	2r	.	2r;	.
=112	=112	=112	=112	=112	=112	=112
!LO:TX:a:t=P:problem:mixed beam	!	!	!	!	!	!
8E\L	16b\LL	.	16dd\LL	.	4dd\	quod
.	16b\	.	16dd\	.	.	.
8EE/	16gg#\	.	16bb\	.	.	.
.	16gg#\JJ	.	16bb\JJ	.	.	.
8E\	16b\LL	.	16dd\LL	.	4b\	de
.	16b\	.	16dd\	.	.	.
8EE/J	16gg#\	.	16bb\	.	.	.
.	16gg#\JJ	.	16bb\JJ	.	.	.
=113	=113	=113	=113	=113	=113	=113
!LO:TX:a:t=P:problem:mixed beam	!	!	!	!	!	!
8E\L	16a\LL	.	16cc#\LL	.	32cc#\LLL	frau-
.	.	.	.	.	32b\JJ	.
.	16a\	.	16cc#\	.	8.a\J	.
8EE/	16ee\	.	16aa\	.	.	.
.	16ee\JJ	.	16aa\JJ	.	.	.
8E\	16a\LL	.	16cc#\LL	.	4ee\	-de
.	16a\	.	16cc#\	.	.	.
8EE/J	16ee\	.	16aa\	.	.	.
.	16ee\JJ	.	16aa\JJ	.	.	.
=114	=114	=114	=114	=114	=114	=114
!LO:TX:a:t=P:problem:mixed beam	!	!	!LO:TX:a:t=P:problem:takty 114-115 zapisane repetycją, adnotacja "bis"	!	!	!
8E\L	16b\LL	.	16dd\LLyy	.	4dd\	quod
.	16b\	.	16dd\yy	.	.	.
8EE/	16gg#\	.	16bb\yy	.	.	.
.	16gg#\JJ	.	16bb\JJyy	.	.	.
8E\	16b\LL	.	16dd\LLyy	.	4b\	de
.	16b\	.	16dd\yy	.	.	.
8EE/J	16gg#\	.	16bb\yy	.	.	.
.	16gg#\JJ	.	16bb\JJyy	.	.	.
=115	=115	=115	=115	=115	=115	=115
!LO:TX:a:t=P:problem:mixed beam	!	!	!	!	!	!
8E\L	16a\LL	.	16cc#\LLyy	.	32cc#\LLL	frau-
.	.	.	.	.	32b\JJ	.
.	16a\	.	16cc#\yy	.	8.a\J	.
8EE/	16ee\	.	16aa\yy	.	.	.
.	16ee\JJ	.	16aa\JJyy	.	.	.
8E\	16a\LL	.	16cc#\LLyy	.	4ee\	-de
.	16a\	.	16cc#\yy	.	.	.
8EE/J	16ee\	.	16aa\yy	.	.	.
.	16ee\JJ	.	16aa\JJyy	.	.	.
!	!LO:LB:g=original	!	!	!	!LO:LB:g=original	!
=116	=116	=116	=116	=116	=116	=116
!LO:TX:a:t=P:problem:mixed beam	!	!	!	!	!	!
8E\L	16b\LL	.	16dd\LL	.	4r	.
.	16b\	.	16dd\	.	.	.
8EE/	16gg#\	.	16bb\	.	.	.
.	16gg#\JJ	.	16bb\JJ	.	.	.
8E\	16b\LL	.	16dd\LL	.	8dd\	Dae-
.	16b\	.	16dd\	.	.	.
8EE/J	16gg#\	.	16bb\	.	8b\	-mo-
.	16gg#\JJ	.	16bb\JJ	.	.	.
!LO:LB:g=original	!	!	!	!	!	!
=117	=117	=117	=117	=117	=117	=117
8A\L	8a/	.	8ee\	.	8cc#\	-num
8D\	4dd\	.	4ff#\	.	4ff#\	.
8D\	.	.	.	.	.	.
8D\J	16cc#\LL	.	16ee\LL	.	16ee\LL	nos
.	16b\JJ	.	16dd\JJ	.	16dd\JJ	.
=118	=118	=118	=118	=118	=118	=118
8E\L	4a/	.	4cc#\	.	8cc#\L	li-
8E\	.	.	.	.	16b\L	.
.	.	.	.	.	16a\JJ	.
8E\	4g#/	.	4b\	.	4b\	-be-
8E\J	.	.	.	.	.	.
!	!	!	!LO:LB:g=original	!	!	!
=119	=119	=119	=119	=119	=119	=119
!	!	!	!LO:TX:a:t=P:problem:mixed beam	!	!	!
8F#\L	8a\L	.	8a/L	.	4a\	-ras
8D\	8ff#\J	.	8aa\J	.	.	.
8D\	16ee\LL	.	16gg#\LL	.	8r	.
.	16dd\	.	16ff#\	.	.	.
8D\J	16cc#\	.	16ee\	.	8a\	nos
.	16b\JJ	.	16dd\JJ	.	.	.
=120	=120	=120	=120	=120	=120	=120
4E\	4a/	.	4cc#\	.	4a\	li-
4E\	4g#/	.	4b\	.	4b\	-be-
=121	=121	=121	=121	=121	=121	=121
8AA/L	4e/	.	4a\	.	4a;\	-ras
8AA/	.	.	.	.	.	.
8AA/	4g#/	.	4b\	.	4r	.
8AA/J	.	.	.	.	.	.
=122	=122	=122	=122	=122	=122	=122
!	!	!	!	!	!LO:N:vis=00	!
8AA/L	16a\LL	.	16cc#\LL	.	0r	.
.	16b\JJ	.	16dd\JJ	.	.	.
8AA/	4cc#\	.	4ee\	.	.	.
8AA/	.	.	.	.	.	.
8AA/J	8e/	.	8e/	.	.	.
=123	=123	=123	=123	=123	=123	=123
!	!	!	!	!LO:DY:b	!	!
8AA/L	4e/|	.	4a/	f	.	.
8AA/	.	.	.	.	.	.
8AA/	4g#/|	.	4b/	.	.	.
8AA/J	.	.	.	.	.	.
=124	=124	=124	=124	=124	=124	=124
4AA/	8a/	.	8cc#\	.	.	.
.	16e/LL	.	16e/LL	.	.	.
.	16c#/JJ	.	16c#/JJ	.	.	.
4r	8A/	.	8A/	.	.	.
.	16e/LL	.	16e/LL	.	.	.
.	16c#/JJ	.	16c#/JJ	.	.	.
=125	=125	=125	=125	=125	=125	=125
8r	8A/	.	8A/	.	.	.
8AA/L	(8ff#\L	.	(8aa\L	.	.	.
8AA/	8ee\	.	8gg#\	.	.	.
8AA/J	8dd\J)	.	8ff#\J)	.	.	.
=126	=126	=126	=126	=126	=126	=126
!	!	!	!	!	!LO:N:vis=00	!
4AA/	8cc#\	.	8ee\	.	0r	.
.	16e/LL	.	16e/LL	.	.	.
.	16c#/JJ	.	16c#/JJ	.	.	.
4r	8A/	.	8A/	.	.	.
.	16e/LL	.	16e/LL	.	.	.
.	16c#/JJ	.	16c#/JJ	.	.	.
=127	=127	=127	=127	=127	=127	=127
8r	8A/	.	8A/	.	.	.
8AA/L	8dd\L	.	(8ff#\L	.	.	.
8AA/	8cc#\	.	8ee\	.	.	.
8AA/J	8b\J	.	8dd\J)	.	.	.
!	!LO:LB:g=original	!	!	!	!	!
=128	=128	=128	=128	=128	=128	=128
4AA/	8a/	.	8cc#\	.	.	.
.	16e/LL	.	16e/LL	.	.	.
.	16c#/JJ	.	16c#/JJ	.	.	.
4r	8A/	.	8A/	.	.	.
!	!LO:TX:b:t=P:problem:"e" prawdop. pomyłkowa kropka	!	!	!	!	!
.	16aLL 16e/	.	16a/LL	.	.	.
.	16f#/JJ	.	16f#/JJ	.	.	.
=129	=129	=129	=129	=129	=129	=129
8D/	8d/	.	8d/	.	.	.
8r	16b/LL	.	16b/LL	.	.	.
.	16g#/JJ	.	16g#/JJ	.	.	.
8E\	8e/	.	8e/	.	.	.
8r	16ee\LL	.	16ee\LL	.	.	.
.	16cc#\JJ	.	16cc#\JJ	.	.	.
!LO:LB:g=original	!	!	!LO:LB:g=original	!	!	!
=130	=130	=130	=130	=130	=130	=130
!	!	!	!	!	!LO:N:vis=00	!
8A\	8a/	.	8a/	.	0r	.
8r	16aa\LL	.	16aa\LL	.	.	.
.	16ff#\JJ	.	16ff#\JJ	.	.	.
8B\	8dd\	.	8dd\	.	.	.
8r	16b/LL	.	16b\LL	.	.	.
.	16g#/JJ	.	16g#\JJ	.	.	.
=131	=131	=131	=131	=131	=131	=131
!	!LO:TX:a:t=P:problem:mixed beam	!	!LO:TX:a:t=P:problem:mixed beam	!	!	!
8G#\L	16e/LL	.	16e/LL	.	.	.
.	16dd\	.	16dd\	.	.	.
8A\	16cc#\	.	16cc#\	.	.	.
.	16b\JJ	.	16b\JJ	.	.	.
8D\	8f#/L	.	8f#/L	.	.	.
8E\J	8g#/J	.	8g#/J	.	.	.
=132	=132	=132	=132	=132	=132	=132
8A\	8a/	.	8a/	.	.	.
8r	16aa\LL|	.	16aa\LL	.	.	.
.	16ff#\JJ|	.	16ff#\JJ	.	.	.
8B\	8dd\L|	.	8dd\	.	.	.
8r	16b\L	.	16b\LL	.	.	.
.	16g#\JJ	.	16g#\JJ	.	.	.
=133	=133	=133	=133	=133	=133	=133
!	!LO:TX:a:t=P:problem:mixed beam	!	!LO:TX:a:t=P:problem:mixed beam	!	!	!
8G#\L	16e/LL	.	16e/LL	.	.	.
.	16dd\	.	16dd\	.	.	.
8A\	16cc#\	.	16cc#\	.	.	.
.	16b\JJ	.	16b\JJ	.	.	.
8D\	8f#/L	.	8f#/L	.	.	.
8E\J	8g#/J	.	8g#/J	.	.	.
=134	=134	=134	=134	=134	=134	=134
4AA;/	8a;</L	.	8a/L	.	2r	.
.	8A/J	.	8A/J	.	.	.
4r	4r	.	4r	.	.	.
=135||	=135||	=135||	=135||	=135||	=135||	=135||
*k[]	*k[]	*	*k[]	*	*k[]	*
*a:	*a:	*	*a:	*	*a:	*
!	!	!LO:DY:b:t=piano	!	!LO:DY:b:t=piano	!LO:TX:a:t=P:problem:kolejność kasowników gn fn cn (ten oktawę wyżej)	!
8A\L	8cc\	p	8cc\	p	8cc\	dum
8A\	4cc\	.	4cc\	.	4cc\	in
8A\	.	.	.	.	.	.
8A\J	8ee\	.	8ee\	.	8ee\	.
!	!LO:LB:g=original	!	!	!	!	!
=136	=136	=136	=136	=136	=136	=136
8G\L	8b\	.	8b\	.	8b\	ve
8G\	4b\	.	4b\	.	4b\	ra
8G\	.	.	.	.	.	.
8G\J	8ee\	.	8ee\	.	8ee\	.
=137	=137	=137	=137	=137	=137	=137
8F\L	8a/	.	8a\	.	(8a\	et
8F\	4a/	.	4a\	.	4a\	Sin-
8F\	.	.	.	.	.	.
8F\J	8ee\	.	8ee\	.	8ff\)	.
=138	=138	=138	=138	=138	=138	=138
!	!	!	!	!	!LO:SIC:s=16g#:v	!
8E\L	16g#X/LL	.	16g#X/LL	.	16g/LL	-ce-
.	16f#X/J	.	16f#X/J	.	16f#X/JJ	.
!	!	!	!LO:N:vis=16	!	!	!
8E\J	8e/J	.	8e/J	.	8e/	-ra,
16E\LL	16e/LL	.	16e/LL	.	4r	.
16D\	16d/	.	16d/	.	.	.
16C\	16c/	.	16c/	.	.	.
16BB\JJ	16B/JJ	.	16B/JJ	.	.	.
!	!	!	!LO:LB:g=original	!	!LO:LB:g=original	!
=139	=139	=139	=139	=139	=139	=139
8AA/L	4A/|	.	4A/|	.	4a\	Dum
8AA/	.	.	.	.	.	.
8AA/	4b\|	.	4b\|	.	4b\	in
8AA/J	.	.	.	.	.	.
=140	=140	=140	=140	=140	=140	=140
4AA/	8cc\	.	8cc\	.	16cc\LL	Ve-
.	.	.	.	.	16b\JJ	.
.	16e/LL	.	16e/LL	.	8a\	-ra
.	16c/JJ	.	16c/JJ	.	.	.
4r	8A/	.	8A/	.	4r	.
.	16e/LL	.	16e/LL	.	.	.
.	16c/JJ	.	16c/JJ	.	.	.
=141	=141	=141	=141	=141	=141	=141
8r	8A/	.	8A/	.	8r	.
8D\L	(8dd\L	.	8ff\L	.	8ff\L	et
8E\	8cc\	.	8ee\	.	8ee\J	Sin-
8E\J	8b\J)	.	8dd\J	.	8dd\	.
!LO:LB:g=original	!	!	!	!	!	!
=142	=142	=142	=142	=142	=142	=142
4A\	8cc\	.	8cc\	.	16cc\LL	-ce-
.	.	.	.	.	16b\JJ	.
.	16aa\LL	.	16aa\LL	.	8a\	-ra
.	16ee\JJ	.	16ee\JJ	.	.	.
4r	8cc\|	.	8cc\	.	4r	.
.	16ee\LL	.	16ee\LL	.	.	.
.	16cc\JJ	.	16cc\JJ	.	.	.
=143	=143	=143	=143	=143	=143	=143
8AA/L	4a/	.	4a/	.	4a\	dum
8AA/	.	.	.	.	.	.
8AA/	4g#X/	.	4b/	.	4b\	in
8AA/J	.	.	.	.	.	.
=144	=144	=144	=144	=144	=144	=144
4AA/	8a/	.	8cc\	.	16cc\LL	Ve-
.	.	.	.	.	16b\JJ	.
.	16e/LL	.	16e/LL	.	8a\	-ra
.	16c/JJ	.	16c/JJ	.	.	.
4r	8A/	.	8A/	.	4r	.
.	16e/LL	.	16e/LL	.	.	.
.	16c/JJ	.	16c/JJ	.	.	.
=145	=145	=145	=145	=145	=145	=145
8r	8A/	.	8A/	.	8r	.
8D\L	(8dd\L	.	8ff\L	.	8ff\L	et
8E\	8cc\	.	8ee\	.	8ee\J	Sin-
8E\J	8b\J)	.	8dd\J	.	8dd\	.
!	!LO:LB:g=original	!	!	!	!	!
=146	=146	=146	=146	=146	=146	=146
4A\	8a\|	.	8cc\	.	16cc\LL	-ce-
.	.	.	.	.	16b\JJ	.
.	16aa\LL	.	16aa\LL	.	8a\	-ra
.	16ee\JJ	.	16ee\JJ	.	.	.
4r	8cc\|	.	8cc\	.	4r	.
.	16ee\LL	.	16ee\LL	.	.	.
.	16cc\JJ	.	16cc\JJ	.	.	.
=147	=147	=147	=147	=147	=147	=147
!	!LO:TX:a:t=P:problem:mixed beam	!LO:DY:b	!LO:TX:a:t=P:problem:mixed beam	!	!	!
8A\L	16a/LL	f	16a/LL	.	4cc\	dum
.	16a/	.	16a/	.	.	.
8A\	16aa\	.	16aa\	.	.	.
.	16aa\JJ	.	16aa\JJ	.	.	.
8A\	16a\LL	.	16cc\LL	.	4ff\	in
.	16a\	.	16cc\	.	.	.
8A\J	16ff\	.	16aa\	.	.	.
.	16ff\JJ	.	16aa\JJ	.	.	.
=148	=148	=148	=148	=148	=148	=148
8B\L	16g\LL	.	16b\LL	.	(8g\L	Ve-
.	16g\	.	16b\	.	.	.
8B\	16dd\	.	16gg\	.	8b\J)	.
.	16dd\JJ	.	16gg\JJ	.	.	.
!	!	!	!LO:LB:g=original	!	!	!
8B\	16g\LL	.	16b\LL	.	4dd\	-ra
.	16g\	.	16b\	.	.	.
8B\J	16dd\	.	16gg\	.	.	.
.	16dd\JJ	.	16gg\JJ	.	.	.
=149	=149	=149	=149	=149	=149	=149
4BB/	8f\L	.	8f\L	.	8r	.
.	8b\	.	8dd\	.	8dd\L	et
4r	8cc\	.	8ee\	.	8ee\J	Sin-
.	8dd\J	.	8ff\J	.	8ff\	.
!	!	!	!	!	!LO:LB:g=original	!
=150	=150	=150	=150	=150	=150	=150
4C/	8cc\|	.	8ee\|	.	16ee\LL	-ce-
.	.	.	.	.	16dd\JJ	.
.	16g/LL	.	16g/LL	.	8cc\	-ra
.	16e/JJ	.	16e/JJ	.	.	.
4r	8c/	.	8c/	.	4r	.
.	16g/LL	.	16g/LL	.	.	.
.	16e/JJ	.	16e/JJ	.	.	.
=151	=151	=151	=151	=151	=151	=151
!	!LO:TX:a:t=P:problem:mixed beam	!	!LO:TX:a:t=P:problem:mixed beam	!	!	!
8E\L	16c/LL	.	16c/LL	.	4r	.
.	16c/	.	16c/	.	.	.
8E\	16cc\	.	16gg\	.	.	.
.	16cc\JJ	.	16gg\JJ	.	.	.
8E\	16g/LL	.	16cc\LL	.	8.cc\	car-
.	16g/	.	16cc\	.	.	.
8E\J	16cc/	.	16gg\	.	.	.
.	16cc/JJ	.	16gg\JJ	.	16cc\	-ne
=152	=152	=152	=152	=152	=152	=152
8F\L	16a\LL	.	16cc\LL	.	8cc\	De-
.	16a\	.	16cc\	.	.	.
8F\	16cc\	.	16aa\	.	8f/	-um
.	16cc\JJ	.	16aa\JJ	.	.	.
8F\	16a\LL	.	16cc\LL	.	8r	.
.	16a\	.	16cc\	.	.	.
8F\J	16cc\	.	16aa\	.	8ff\	ge-
.	16cc\JJ	.	16aa\JJ	.	.	.
=153	=153	=153	=153	=153	=153	=153
8G\L	4cc\	.	4ee\	.	32ee\LLL	.
.	.	.	.	.	32dd\JJ	.
.	.	.	.	.	8.cc\J	.
8G\	.	.	.	.	.	.
8G\	4b\	.	4dd\	.	4ddM\	-ne-
8G\J	.	.	.	.	.	.
=154	=154	=154	=154	=154	=154	=154
8c\L	16cc\LL	.	16cc\LL	.	4cc\	-ras
.	16cc\	.	16ee\	.	.	.
8c\	16cc\	.	16ee\	.	.	.
.	16cc\JJ	.	16ee\JJ	.	.	.
!	!LO:LB:g=original	!	!	!	!	!
8c\	16cc\LL	.	16ee\LL	.	4r	.
.	16cc\	.	16ee\	.	.	.
8c\J	16cc\	.	16ee\	.	.	.
.	16cc\JJ	.	16ee\JJ	.	.	.
!LO:LB:g=original	!	!	!	!	!	!
=155	=155	=155	=155	=155	=155	=155
8B\L	16cc\LL	.	16ee\LL	.	4r	.
.	16cc\	.	16ee\	.	.	.
8B\	16cc\	.	16ee\	.	.	.
.	16cc\JJ	.	16ee\JJ	.	.	.
8B\	16cc\LL	.	16ee\LL	.	8.ee\	Car-
.	16cc\	.	16ee\	.	.	.
8B\J	16cc\	.	16ee\	.	.	.
.	16cc\JJ	.	16ee\JJ	.	16ee\	-ne
=156	=156	=156	=156	=156	=156	=156
*2\right	*2\right	*	*2\right	*	*	*
[2A#X\	2cc#X\	.	2ee\	.	4ee\	De-
.	.	.	.	.	4e/	-um
=157	=157	=157	=157	=157	=157	=157
!	!LO:SIC:s=4cc#:v	!	!	!	!	!
4A#\]	4cc\	.	4ee\	.	4r	.
!	!	!	!LO:TX:a:B:t=adagio	!	!	!
4r	4r	.	4r	.	4ee\	ge-
=158	=158	=158	=158	=158	=158	=158
!LO:TX:b:i:t=adagio	!LO:TX:b:i:t=adagio	!	!	!	!	!
2B\	2b/	.	4ee\	.	4g/	-ne-
.	.	.	4dd#X\	.	4f/	-ras.
=159	=159	=159	=159	=159	=159	=159
4E\	4e/	.	4ee\	.	4e/	.
!LO:TX:b:t=Da Capo.	!LO:TX:b:t=Da Capo	!	!LO:TX:b:t=Da Capo	!	!LO:TX:b:t=Da Capo	!
4r	4r	.	4r	.	4r	.
==	==	==	==	==	==	==
*-	*-	*-	*-	*-	*-	*-
!!!system-decoration: s1[g1]s4
!!!RDF**kern: > = above
!!!RDF**kern: < = below
!!!RDF**dynam: p = "pia.
!!!RDF**dynam: f = "for."
!!!ENC: Marta Lawrence
!!!END: 2020-10-13
!!!ENC: Marcin Jachim
!!!END: 2020-05-01
!!!RDF**kern: | = vertical stroke
